svg/Tango/apps/accessories-character-map.svg

<?xml version="1.0" encoding="UTF-8" standalone="no"?>
<!-- Created with Inkscape (http://www.inkscape.org/) -->
<svg
   xmlns:dc="http://purl.org/dc/elements/1.1/"
   xmlns:cc="http://creativecommons.org/ns#"
   xmlns:rdf="http://www.w3.org/1999/02/22-rdf-syntax-ns#"
   xmlns:svg="http://www.w3.org/2000/svg"
   xmlns="http://www.w3.org/2000/svg"
   xmlns:xlink="http://www.w3.org/1999/xlink"
   xmlns:sodipodi="http://sodipodi.sourceforge.net/DTD/sodipodi-0.dtd"
   xmlns:inkscape="http://www.inkscape.org/namespaces/inkscape"
   inkscape:export-ydpi="90.000000"
   inkscape:export-xdpi="90.000000"
   inkscape:export-filename="/home/jimmac/Desktop/wi-fi.png"
   width="48px"
   height="48px"
   id="svg11300"
   sodipodi:version="0.32"
   inkscape:version="0.46"
   sodipodi:docbase="/home/jimmac/src/cvs/tango-icon-theme/scalable/apps"
   sodipodi:docname="accessories-character-map.svg"
   inkscape:output_extension="org.inkscape.output.svg.inkscape">
  <defs
     id="defs3">
    <inkscape:perspective
       sodipodi:type="inkscape:persp3d"
       inkscape:vp_x="0 : 24 : 1"
       inkscape:vp_y="0 : 1000 : 0"
       inkscape:vp_z="48 : 24 : 1"
       inkscape:persp3d-origin="24 : 16 : 1"
       id="perspective47" />
    <radialGradient
       inkscape:collect="always"
       xlink:href="#linearGradient5060"
       id="radialGradient6719"
       gradientUnits="userSpaceOnUse"
       gradientTransform="matrix(-2.774389,0,0,1.969706,112.7623,-872.8854)"
       cx="605.71429"
       cy="486.64789"
       fx="605.71429"
       fy="486.64789"
       r="117.14286" />
    <linearGradient
       inkscape:collect="always"
       id="linearGradient5060">
      <stop
         style="stop-color:black;stop-opacity:1;"
         offset="0"
         id="stop5062" />
      <stop
         style="stop-color:black;stop-opacity:0;"
         offset="1"
         id="stop5064" />
    </linearGradient>
    <radialGradient
       inkscape:collect="always"
       xlink:href="#linearGradient5060"
       id="radialGradient6717"
       gradientUnits="userSpaceOnUse"
       gradientTransform="matrix(2.774389,0,0,1.969706,-1891.633,-872.8854)"
       cx="605.71429"
       cy="486.64789"
       fx="605.71429"
       fy="486.64789"
       r="117.14286" />
    <linearGradient
       id="linearGradient5048">
      <stop
         style="stop-color:black;stop-opacity:0;"
         offset="0"
         id="stop5050" />
      <stop
         id="stop5056"
         offset="0.5"
         style="stop-color:black;stop-opacity:1;" />
      <stop
         style="stop-color:black;stop-opacity:0;"
         offset="1"
         id="stop5052" />
    </linearGradient>
    <linearGradient
       inkscape:collect="always"
       xlink:href="#linearGradient5048"
       id="linearGradient6715"
       gradientUnits="userSpaceOnUse"
       gradientTransform="matrix(2.774389,0,0,1.969706,-1892.179,-872.8854)"
       x1="302.85715"
       y1="366.64789"
       x2="302.85715"
       y2="609.50507" />
    <linearGradient
       id="linearGradient4750">
      <stop
         style="stop-color:#ffffff;stop-opacity:0;"
         offset="0"
         id="stop4752" />
      <stop
         id="stop4758"
         offset="0.5"
         style="stop-color:#ffffff;stop-opacity:1;" />
      <stop
         style="stop-color:#ffffff;stop-opacity:0;"
         offset="1"
         id="stop4754" />
    </linearGradient>
    <linearGradient
       id="linearGradient4728">
      <stop
         style="stop-color:#eeeeec;stop-opacity:1;"
         offset="0"
         id="stop4730" />
      <stop
         style="stop-color:#ffffff;stop-opacity:1;"
         offset="1"
         id="stop4732" />
    </linearGradient>
    <linearGradient
       inkscape:collect="always"
       id="linearGradient4720">
      <stop
         style="stop-color:#000000;stop-opacity:1;"
         offset="0"
         id="stop4722" />
      <stop
         style="stop-color:#000000;stop-opacity:0;"
         offset="1"
         id="stop4724" />
    </linearGradient>
    <linearGradient
       id="linearGradient4710">
      <stop
         style="stop-color:#f2f4f1;stop-opacity:1;"
         offset="0"
         id="stop4712" />
      <stop
         style="stop-color:#d3d7cf;stop-opacity:1;"
         offset="1"
         id="stop4714" />
    </linearGradient>
    <radialGradient
       inkscape:collect="always"
       xlink:href="#linearGradient4710"
       id="radialGradient4716"
       cx="24.500004"
       cy="29.500004"
       fx="24.500004"
       fy="29.500004"
       r="15.095438"
       gradientUnits="userSpaceOnUse"
       gradientTransform="matrix(2.154119,-4.677245e-16,4.677245e-16,2.154119,-76.77594,-33.5971)" />
    <radialGradient
       inkscape:collect="always"
       xlink:href="#linearGradient4720"
       id="radialGradient4726"
       cx="24.25"
       cy="39.8125"
       fx="24.25"
       fy="39.8125"
       r="17.375"
       gradientTransform="matrix(1,0,0,0.399281,0,23.91614)"
       gradientUnits="userSpaceOnUse" />
    <linearGradient
       inkscape:collect="always"
       xlink:href="#linearGradient4728"
       id="linearGradient4734"
       x1="24.095442"
       y1="12.595438"
       x2="24.095442"
       y2="34.09544"
       gradientUnits="userSpaceOnUse"
       gradientTransform="matrix(0.993678,0,0,0.993678,-47.94311,1.037934)" />
    <linearGradient
       inkscape:collect="always"
       xlink:href="#linearGradient4750"
       id="linearGradient4756"
       x1="8.1168785"
       y1="7.9334393"
       x2="9.0674801"
       y2="6.7843909"
       gradientUnits="userSpaceOnUse" />
    <linearGradient
       inkscape:collect="always"
       xlink:href="#linearGradient4750"
       id="linearGradient4760"
       gradientUnits="userSpaceOnUse"
       x1="38.292995"
       y1="6.7174492"
       x2="39.4375"
       y2="8.161993" />
  </defs>
  <sodipodi:namedview
     stroke="#eeeeec"
     fill="#d3d7cf"
     id="base"
     pagecolor="#ffffff"
     bordercolor="#666666"
     borderopacity="0.25490196"
     inkscape:pageopacity="0.0"
     inkscape:pageshadow="2"
     inkscape:zoom="1"
     inkscape:cx="-135.31929"
     inkscape:cy="5.8673624"
     inkscape:current-layer="layer1"
     showgrid="false"
     inkscape:grid-bbox="true"
     inkscape:document-units="px"
     inkscape:showpageshadow="false"
     inkscape:window-width="872"
     inkscape:window-height="688"
     inkscape:window-x="313"
     inkscape:window-y="160" />
  <metadata
     id="metadata4">
    <rdf:RDF>
      <cc:Work
         rdf:about="">
        <dc:format>image/svg+xml</dc:format>
        <dc:type
           rdf:resource="http://purl.org/dc/dcmitype/StillImage" />
        <dc:creator>
          <cc:Agent>
            <dc:title>Jakub Steiner</dc:title>
          </cc:Agent>
        </dc:creator>
        <dc:source>http://jimmac.musichall.cz</dc:source>
        <cc:license
           rdf:resource="http://creativecommons.org/licenses/publicdomain/" />
        <dc:title>Character Map</dc:title>
        <dc:subject>
          <rdf:Bag>
            <rdf:li>key</rdf:li>
            <rdf:li>map</rdf:li>
            <rdf:li>character</rdf:li>
            <rdf:li>accessory</rdf:li>
          </rdf:Bag>
        </dc:subject>
      </cc:Work>
      <cc:License
         rdf:about="http://creativecommons.org/licenses/publicdomain/">
        <cc:permits
           rdf:resource="http://creativecommons.org/ns#Reproduction" />
        <cc:permits
           rdf:resource="http://creativecommons.org/ns#Distribution" />
        <cc:permits
           rdf:resource="http://creativecommons.org/ns#DerivativeWorks" />
      </cc:License>
    </rdf:RDF>
  </metadata>
  <g
     id="layer1"
     inkscape:label="Layer 1"
     inkscape:groupmode="layer">
    <g
       transform="matrix(2.171308e-2,0,0,2.452593e-2,43.18739,37.9549)"
       id="g6707">
      <rect
         style="opacity:0.40206185;color:black;fill:url(#linearGradient6715);fill-opacity:1;fill-rule:nonzero;stroke:none;stroke-width:1;stroke-linecap:round;stroke-linejoin:miter;marker:none;marker-start:none;marker-mid:none;marker-end:none;stroke-miterlimit:4;stroke-dasharray:none;stroke-dashoffset:0;stroke-opacity:1;visibility:visible;display:inline;overflow:visible"
         id="rect6709"
         width="1339.6335"
         height="478.35718"
         x="-1559.2523"
         y="-150.69685" />
      <path
         style="opacity:0.40206185;color:black;fill:url(#radialGradient6717);fill-opacity:1;fill-rule:nonzero;stroke:none;stroke-width:1;stroke-linecap:round;stroke-linejoin:miter;marker:none;marker-start:none;marker-mid:none;marker-end:none;stroke-miterlimit:4;stroke-dasharray:none;stroke-dashoffset:0;stroke-opacity:1;visibility:visible;display:inline;overflow:visible"
         d="M -219.61876,-150.68038 C -219.61876,-150.68038 -219.61876,327.65041 -219.61876,327.65041 C -76.744594,328.55086 125.78146,220.48075 125.78138,88.454235 C 125.78138,-43.572302 -33.655436,-150.68036 -219.61876,-150.68038 z "
         id="path6711"
         sodipodi:nodetypes="cccc" />
      <path
         sodipodi:nodetypes="cccc"
         id="path6713"
         d="M -1559.2523,-150.68038 C -1559.2523,-150.68038 -1559.2523,327.65041 -1559.2523,327.65041 C -1702.1265,328.55086 -1904.6525,220.48075 -1904.6525,88.454235 C -1904.6525,-43.572302 -1745.2157,-150.68036 -1559.2523,-150.68038 z "
         style="opacity:0.40206185;color:black;fill:url(#radialGradient6719);fill-opacity:1;fill-rule:nonzero;stroke:none;stroke-width:1;stroke-linecap:round;stroke-linejoin:miter;marker:none;marker-start:none;marker-mid:none;marker-end:none;stroke-miterlimit:4;stroke-dasharray:none;stroke-dashoffset:0;stroke-opacity:1;visibility:visible;display:inline;overflow:visible" />
    </g>
    <rect
       style="opacity:1;color:#000000;fill:#d3d7cf;fill-opacity:1;fill-rule:nonzero;stroke:#888a85;stroke-width:0.99999988;stroke-linecap:butt;stroke-linejoin:miter;marker:none;marker-start:none;marker-mid:none;marker-end:none;stroke-miterlimit:4;stroke-dasharray:none;stroke-dashoffset:0;stroke-opacity:1;visibility:visible;display:block;overflow:visible"
       id="rect2960"
       width="37.00507"
       height="37.959873"
       x="5.5074925"
       y="4.5200701"
       inkscape:r_cx="true"
       inkscape:r_cy="true"
       rx="4.5342813"
       ry="4.6512747" />
    <rect
       ry="3.5541852"
       rx="3.5541852"
       inkscape:r_cy="true"
       inkscape:r_cx="true"
       y="7.4968405"
       x="-38.503174"
       height="29.00633"
       width="29.00633"
       id="rect3835"
       style="opacity:1;color:#000000;fill:url(#radialGradient4716);fill-opacity:1;fill-rule:nonzero;stroke:url(#linearGradient4734);stroke-width:1.00000012;stroke-linecap:butt;stroke-linejoin:miter;marker:none;marker-start:none;marker-mid:none;marker-end:none;stroke-miterlimit:4;stroke-dasharray:none;stroke-dashoffset:0;stroke-opacity:1;visibility:visible;display:block;overflow:visible"
       transform="scale(-1,1)" />
    <path
       style="font-size:22.15084457px;font-style:normal;font-variant:normal;font-weight:normal;font-stretch:normal;line-height:100%;writing-mode:lr-tb;text-anchor:start;fill:#000000;fill-opacity:1;stroke:none;stroke-width:1px;stroke-linecap:butt;stroke-linejoin:miter;stroke-opacity:1;font-family:Segoe"
       d="M 32.442896,30.089809 L 30.344623,30.089809 L 30.344623,28.716197 C 29.508191,29.826624 28.404976,30.381837 27.034975,30.381837 C 25.938967,30.381837 25.070095,30.086204 24.428357,29.494938 C 23.793827,28.896463 23.476562,28.099696 23.476563,27.104637 C 23.476562,26.426848 23.606352,25.839188 23.865934,25.341655 C 24.132723,24.844131 24.529303,24.44034 25.055676,24.13028 C 25.589255,23.820233 26.281468,23.611126 27.132318,23.502962 L 30.344623,23.070328 C 30.344615,22.21949 30.164351,21.581355 29.803831,21.155924 C 29.450507,20.73051 28.920531,20.517799 28.213902,20.517789 C 27.629842,20.517799 27.006129,20.629562 26.342761,20.85308 C 25.686597,21.076617 25.098937,21.401092 24.579779,21.826506 L 24.579779,19.695785 C 25.928151,19.018003 27.197208,18.679107 28.386956,18.679096 C 29.699271,18.679107 30.701538,19.04324 31.39376,19.771496 C 32.093175,20.499772 32.442887,21.530882 32.442896,22.864827 L 32.442896,30.089809 M 30.344623,25.904079 L 30.344623,24.638625 C 28.541977,24.869368 27.525289,25.002763 27.294555,25.038811 C 27.071024,25.074869 26.793417,25.165001 26.461736,25.309207 C 26.137257,25.453423 25.906519,25.644503 25.769522,25.882447 C 25.639729,26.120399 25.574834,26.466506 25.574837,26.920768 C 25.574834,27.43272 25.755098,27.850932 26.115629,28.175405 C 26.483364,28.492672 26.962865,28.651304 27.554136,28.651302 C 28.289607,28.651304 28.938557,28.388119 29.500987,27.861746 C 30.063404,27.335378 30.344615,26.682823 30.344623,25.904079 M 31.253154,13.747072 L 28.343692,17.294668 L 26.905185,17.294668 L 29.252223,13.747072 L 31.253154,13.747072"
       id="text4736" />
    <rect
       ry="3.5375013"
       rx="3.5375013"
       inkscape:r_cy="true"
       inkscape:r_cx="true"
       y="5.4944024"
       x="6.4573174"
       height="36.011204"
       width="35.105415"
       id="rect4740"
       style="opacity:0.48888891;color:#000000;fill:none;fill-opacity:1;fill-rule:nonzero;stroke:#ffffff;stroke-width:0.99999982;stroke-linecap:butt;stroke-linejoin:miter;marker:none;marker-start:none;marker-mid:none;marker-end:none;stroke-miterlimit:4;stroke-dasharray:none;stroke-dashoffset:0;stroke-opacity:1;visibility:visible;display:block;overflow:visible" />
    <path
       style="opacity:0.48888891;color:#000000;fill:#ffffff;fill-opacity:1;fill-rule:nonzero;stroke:none;stroke-width:1;stroke-linecap:butt;stroke-linejoin:miter;marker:none;marker-start:none;marker-mid:none;marker-end:none;stroke-miterlimit:4;stroke-dasharray:none;stroke-dashoffset:0;stroke-opacity:1;visibility:visible;display:block;overflow:visible"
       d="M 5.9375,38.5 C 6,39.625 7.25,41.4375 8.75,41.8125 L 10.9375,36.3125 L 10,35.625 L 5.9375,38.5 z "
       id="path4742"
       inkscape:r_cx="true"
       inkscape:r_cy="true"
       sodipodi:nodetypes="ccccc" />
    <path
       sodipodi:nodetypes="ccccc"
       inkscape:r_cy="true"
       inkscape:r_cx="true"
       id="path4744"
       d="M 42.0625,38.5 C 42,39.625 40.75,41.4375 39.25,41.8125 L 37.0625,36.3125 L 38,35.625 L 42.0625,38.5 z "
       style="opacity:0.48888891;color:#000000;fill:#ffffff;fill-opacity:1;fill-rule:nonzero;stroke:none;stroke-width:1;stroke-linecap:butt;stroke-linejoin:miter;marker:none;marker-start:none;marker-mid:none;marker-end:none;stroke-miterlimit:4;stroke-dasharray:none;stroke-dashoffset:0;stroke-opacity:1;visibility:visible;display:block;overflow:visible" />
    <path
       style="opacity:1;color:#000000;fill:url(#linearGradient4760);fill-opacity:1;fill-rule:nonzero;stroke:none;stroke-width:1;stroke-linecap:butt;stroke-linejoin:miter;marker:none;marker-start:none;marker-mid:none;marker-end:none;stroke-miterlimit:4;stroke-dasharray:none;stroke-dashoffset:0;stroke-opacity:1;visibility:visible;display:block;overflow:visible"
       d="M 41.5,7.125 C 41.0625,6.5625 40.3125,5.5 39.3125,5.1875 L 37.375,7.75 L 38.3125,8.75 L 41.5,7.125 z "
       id="path4746"
       inkscape:r_cx="true"
       inkscape:r_cy="true"
       sodipodi:nodetypes="ccccc" />
    <path
       sodipodi:nodetypes="ccccc"
       inkscape:r_cy="true"
       inkscape:r_cx="true"
       id="path4748"
       d="M 6.4375,7.125 C 6.875,6.5625 7.5625,5.5625 8.5625,5.25 L 10.4375,7.9375 L 9.75,8.9375 L 6.4375,7.125 z "
       style="opacity:1;color:#000000;fill:url(#linearGradient4756);fill-opacity:1;fill-rule:nonzero;stroke:none;stroke-width:1;stroke-linecap:butt;stroke-linejoin:miter;marker:none;marker-start:none;marker-mid:none;marker-end:none;stroke-miterlimit:4;stroke-dasharray:none;stroke-dashoffset:0;stroke-opacity:1;visibility:visible;display:block;overflow:visible" />
  </g>
</svg>

<svg xmlns="http://www.w3.org/2000/svg" xmlns:xlink="http://www.w3.org/1999/xlink" viewBox="0 0 48 48"><defs><linearGradient xlink:href="#4" id="7" x1="8.117" y1="7.933" x2="9.07" y2="6.784" gradientUnits="userSpaceOnUse"/><linearGradient id="6" y1="13.554" x2="0" y2="34.918" gradientUnits="userSpaceOnUse"><stop stop-color="#eeeeec"/><stop offset="1" stop-color="#fff"/></linearGradient><linearGradient id="3" gradientUnits="userSpaceOnUse" gradientTransform="matrix(2.77439 0 0 1.96971-1892.18-872.89)" y1="366.65" x2="0" y2="609.51"><stop stop-opacity="0"/><stop offset=".5"/><stop offset="1" stop-opacity="0"/></linearGradient><linearGradient id="4"><stop stop-color="#fff" stop-opacity="0"/><stop offset=".5" stop-color="#fff"/><stop offset="1" stop-color="#fff" stop-opacity="0"/></linearGradient><linearGradient id="1"><stop/><stop offset="1" stop-opacity="0"/></linearGradient><linearGradient xlink:href="#4" id="8" gradientUnits="userSpaceOnUse" x1="38.29" y1="6.717" x2="39.438" y2="8.162"/><radialGradient xlink:href="#1" id="0" gradientUnits="userSpaceOnUse" gradientTransform="matrix(-2.77439 0 0 1.96971 112.76-872.89)" cx="605.71" cy="486.65" r="117.14"/><radialGradient id="5" cx="-24" cy="29.949" r="32.517" gradientUnits="userSpaceOnUse"><stop stop-color="#f2f4f1"/><stop offset="1" stop-color="#d3d7cf"/></radialGradient><radialGradient xlink:href="#1" id="2" gradientUnits="userSpaceOnUse" gradientTransform="matrix(2.77439 0 0 1.96971-1891.63-872.89)" cx="605.71" cy="486.65" r="117.14"/></defs><g color="#000"><g transform="matrix(.02171 0 0 .02453 43.19 37.955)"><path opacity=".402" fill="url(#3)" d="m-1559.25-150.7h1339.63v478.36h-1339.63z"/><path d="m-219.62-150.68c0 0 0 478.33 0 478.33 142.87.9 345.4-107.17 345.4-239.2 0-132.03-159.44-239.13-345.4-239.13" opacity=".402" fill="url(#2)"/><path d="m-1559.25-150.68c0 0 0 478.33 0 478.33-142.87.9-345.4-107.17-345.4-239.2 0-132.03 159.44-239.13 345.4-239.13" opacity=".402" fill="url(#0)"/></g><g display="block"><rect width="37.01" height="37.96" x="5.507" y="4.52" rx="4.534" ry="4.651" fill="#d3d7cf" stroke="#888a85"/><rect rx="3.554" y="7.497" x="-38.503" height="29.01" width="29.01" transform="scale(-1 1)" fill="url(#5)" stroke="url(#6)"/></g></g><path d="m32.443 30.09h-2.098v-1.374c-.836 1.11-1.94 1.666-3.31 1.666-1.096 0-1.965-.296-2.607-.887-.635-.598-.952-1.395-.952-2.39 0-.678.13-1.265.389-1.763.267-.498.663-.901 1.19-1.211.534-.31 1.226-.519 2.077-.627l3.212-.433c0-.851-.18-1.489-.541-1.914-.353-.425-.883-.638-1.59-.638-.584 0-1.208.112-1.871.335-.656.224-1.244.548-1.763.973v-2.131c1.348-.678 2.617-1.017 3.807-1.017 1.312 0 2.315.364 3.01 1.092.699.728 1.049 1.759 1.049 3.093v7.225m-2.098-4.186v-1.265c-1.803.231-2.819.364-3.05.4-.224.036-.501.126-.833.27-.324.144-.555.335-.692.573-.13.238-.195.584-.195 1.038 0 .512.18.93.541 1.255.368.317.847.476 1.439.476.735 0 1.384-.263 1.947-.79.562-.526.844-1.179.844-1.958m.909-12.157l-2.909 3.548h-1.439l2.347-3.548h2"/><g display="block" color="#000"><rect rx="3.538" y="5.494" x="6.457" height="36.01" width="35.11" opacity=".489" fill="none" stroke="#fff"/><g fill="#fff"><path d="m5.938 38.5c.063 1.125 1.313 2.938 2.813 3.313l2.188-5.5-.938-.688-4.063 2.875" opacity=".489"/><path d="m42.06 38.5c-.063 1.125-1.313 2.938-2.813 3.313l-2.188-5.5.938-.688 4.063 2.875" opacity=".489"/></g><path d="m41.5 7.125c-.438-.563-1.188-1.625-2.188-1.938l-1.938 2.563.938 1 3.188-1.625" fill="url(#8)"/><path d="m6.438 7.125c.438-.563 1.125-1.563 2.125-1.875l1.875 2.688-.688 1-3.313-1.813" fill="url(#7)"/></g></svg>
